X:1
T: Ernie
C:Bruce Shawyer
R:Jig
Q:180
K:Em
M:6/8
L:1/16
|:E2|G4G2 G2A2B2|A4A2 A2B2c2|B2A2G2 B2c2d2|B2A2G2 F4B,2|
G4G2 G2A2B2|A4A2 A2B2c2|B2A2G2 F2E2^D2|E6 E4:|
|:B2|e4e2 e2d2B2|d4d2 d6|B2A2G2 B2c2d2|B2^c2^d2 d4B2|
e4e2 e2d2B2|d4d2 d4A2|B2A2G2 B2^c2^d2|e6 e4:|
